X: 10093
T: PRIZE JIG
R: jig
B: K\"ohler's Violin Repository, v.1, 1885 p.9 #3
F: http://www.archive.org/details/klersviolinrepos01edin
Z: 2011 John Chambers <jc:trillian.mit.edu>
M: 6/8
L: 1/8
K: Bb
B |\
FBB DBB | B,BB B2c | dfd cAF | Ccc c2d |\
Ege Cec | Dfd B,dB | Cec A,cA | B,BB B2 :|
|: f |\
Dff B,dd | Egg Cee | Cee A,cc | Dff B,dd |\
A,cA B,dB | Cec AFa | bfe dcB FBB B2 :|

%%sep 2 1 500

